src/svg/sync.svg

<svg height="16" width="12" xmlns="http://www.w3.org/2000/svg" viewBox="0 0 12 16">
  <path d="M10.24 7.4c0.19 1.28-0.2 2.62-1.2 3.6-1.47 1.45-3.74 1.63-5.41 0.54l1.17-1.14L0.5 9.8 1.1 14l1.31-1.26c2.36 1.74 5.7 1.57 7.84-0.54 1.24-1.23 1.81-2.85 1.74-4.46L10.24 7.4zM2.96 5c1.47-1.45 3.74-1.63 5.41-0.54l-1.17 1.14 4.3 0.6L10.9 2l-1.31 1.26C7.23 1.52 3.89 1.69 1.74 3.8 0.5 5.03-0.06 6.65 0.01 8.26l1.75 0.35C1.57 7.33 1.96 5.98 2.96 5z" />
</svg>

<?xml version="1.0" encoding="UTF-8" standalone="no"?>
<svg width="12px" height="16px" viewBox="0 0 12 16" version="1.1" xmlns="http://www.w3.org/2000/svg" xmlns:xlink="http://www.w3.org/1999/xlink">
    <!-- Generator: Sketch 3.7.1 (28215) - http://www.bohemiancoding.com/sketch -->
    <title>sync</title>
    <desc>Created with Sketch.</desc>
    <defs></defs>
    <g id="Octicons" stroke="none" stroke-width="1" fill="none" fill-rule="evenodd">
        <g id="sync" fill="#000000">
            <path d="M10.24,7.4 C10.43,8.68 10.04,10.02 9.04,11 C7.57,12.45 5.3,12.63 3.63,11.54 L4.8,10.4 L0.5,9.8 L1.1,14 L2.41,12.74 C4.77,14.48 8.11,14.31 10.25,12.2 C11.49,10.97 12.06,9.35 11.99,7.74 L10.24,7.4 L10.24,7.4 Z M2.96,5 C4.43,3.55 6.7,3.37 8.37,4.46 L7.2,5.6 L11.5,6.2 L10.9,2 L9.59,3.26 C7.23,1.52 3.89,1.69 1.74,3.8 C0.5,5.03 -0.06,6.65 0.01,8.26 L1.76,8.61 C1.57,7.33 1.96,5.98 2.96,5 L2.96,5 Z" id="Shape"></path>
        </g>
    </g>
</svg>
